X: 23428
T: Leslie's
R: reel
M: 4/4
K: Amajor
ec~c2 ecfc|eccA Bcdf|ec~c2 ecea|1 fdBc defa:|2 fdBc defg||
a2ea gbeg|a2ga fB~B2|a2ea gbec|dcBc defg|
a2ea gbeg|a2ga fB~B2|agfe fedc|Bcde fgaf||

